src/images/icons/target-1.svg

<svg xmlns="http://www.w3.org/2000/svg" width="34.3" height="42.1"><style>.st0{fill:#5ab947}</style><path class="st0" d="M12.5 18.7c1.5-.5 2-1.4 2.2-2.8.6-4.2 1.4-8.5 2.1-12.7 0-.2.1-.3.1-.6h4.9c.1 1.4.3 2.8.4 4.2h.1c.4-2.3.7-4.6 1.1-6.9H29c.5 4.7 1 9.3 1.5 14.1 1.3-.9 2.6-1.7 3.9-2.5v30.4c-.8.3-.8-.2-.8-.7v-11-1.1H.8v12.1c0 .5 0 1-.8.7V20.2c.3-.1.6-.1 1-.2-.4-1.1.5-1.5 1.2-1.9 3.1-2.1 6.2-4.1 9.3-6.2.3-.2.5-.3.9-.6.1 2.6.1 5 .1 7.4zm8.7 5.7H.9v3.7h25v-7.2H.9v.9h20.3v2.6zm2.1-12.6v7c2.1-1.4 4.1-2.7 6.1-4 .2-.1.3-.6.3-.9-.2-2.5-.5-4.9-.7-7.4 0-.5-.3-.6-.7-.6h-4.1c-.5 0-.7.1-.8.7-.2 1.8-.5 3.5-.8 5.2v.3c.1 0 .3-.1.7-.3zm3.4 16.4h6.8V21h-6.8v7.2zm-15.1-8.1V13h-.2c-3.1 2-6.1 4-9.2 6.1-.2.2-.3.6-.5 1h9.9zm21.9-6.9h-.2c-3.1 2-6.1 4-9.2 6.1-.2.1-.3.4-.5.7h9.9v-6.8zm-11.2 6.9v-6.8c-3.4 2.2-6.6 4.4-9.9 6.5 0 .1.1.2.1.2 3.3.1 6.5.1 9.8.1zM16.6 9.5c-.4 2.5-.8 4.9-1.3 7.5 2.1-1.4 4-2.7 6-4 .1-.1.2-.2.2-.3.1-1.1.2-2.1.3-3.2h-5.2zm3.8 13.3H.8v.8h19.5c.1-.4.1-.6.1-.8zM17.6 3.5c-.2 1-.3 2-.5 3h4.3c-.1-1.1-.2-2-.3-3h-3.5zM24.1.8c-.1.8-.2 1.5-.3 2.2h4.7c-.1-.8-.2-1.5-.2-2.2h-4.2zm4.6 4.3l.2-.2c-.3-.3-.5-.9-.8-.9-1.5-.1-2.9 0-4.5 0-.1.4-.1.8-.2 1.2 1.9-.1 3.6-.1 5.3-.1zM16.9 7.4c-.1.4-.1.8-.2 1.2h4.8c.1-1.2.1-1.2-1-1.2h-3.6z"/><path class="st0" d="M9.1 32.5h6.5V39H9.1v-6.5zm.8 2.7h2v-1.9h-2v1.9zm2.9-2v2h1.9v-2h-1.9zm-.9 4.9v-1.9h-2v1.9h2zm2.8 0v-1.9h-2v1.9h2zM31.1 38.9h-6.4v-6.5h6.4v6.5zm-3.7-3.7v-2h-2v2h2zm2.9-2h-2v2h2v-2zm-2.9 4.9v-2h-2v2h2zm1 0h1.9v-1.9h-1.9v1.9zM16.9 38.9v-6.5h6.5v6.5h-6.5zm2.7-3.7v-2h-1.9v2h1.9zm2.9-1.9h-2v2h2v-2zm-4.8 2.8v2h2v-2h-2zm2.9 0V38h1.9v-1.9h-1.9zM6.8 33.2H2.6v8.7l-.2.2c-.2-.2-.6-.3-.6-.5v-9.1h5.7V42c-.5.2-.7 0-.7-.6v-7.1-1.1z"/><path class="st0" d="M4.1 38.7c-1.3-.5-.6-1.4-.7-2.1-.1-.4-.2-1.1.7-.9v3z"/></svg>

<!-- Generator: Adobe Illustrator 21.0.2, SVG Export Plug-In  -->
<svg version="1.1"
	 xmlns="http://www.w3.org/2000/svg" xmlns:xlink="http://www.w3.org/1999/xlink" xmlns:a="http://ns.adobe.com/AdobeSVGViewerExtensions/3.0/"
	 x="0px" y="0px" width="34.3px" height="42.1px" viewBox="0 0 34.3 42.1" style="enable-background:new 0 0 34.3 42.1;"
	 xml:space="preserve">
<style type="text/css">
	.st0{fill:#5AB947;}
</style>
<defs>
</defs>
<path class="st0" d="M12.5,18.7c1.5-0.5,2-1.4,2.2-2.8c0.6-4.2,1.4-8.5,2.1-12.7c0-0.2,0.1-0.3,0.1-0.6c1.6,0,3.2,0,4.9,0
	c0.1,1.4,0.3,2.8,0.4,4.2c0,0,0.1,0,0.1,0c0.4-2.3,0.7-4.6,1.1-6.9c1.8,0,3.7,0,5.6,0c0.5,4.7,1,9.3,1.5,14.1
	c1.3-0.9,2.6-1.7,3.9-2.5c0,10.2,0,20.3,0,30.4c-0.8,0.3-0.8-0.2-0.8-0.7c0-3.7,0-7.4,0-11c0-0.3,0-0.7,0-1.1c-11,0-21.8,0-32.8,0
	c0,0.4,0,0.7,0,1.1c0,3.7,0,7.4,0,11c0,0.5,0,1-0.8,0.7c0-7.2,0-14.4,0-21.7c0.3-0.1,0.6-0.1,1-0.2c-0.4-1.1,0.5-1.5,1.2-1.9
	c3.1-2.1,6.2-4.1,9.3-6.2c0.3-0.2,0.5-0.3,0.9-0.6C12.5,13.9,12.5,16.3,12.5,18.7z M21.2,24.4c-6.8,0-13.5,0-20.3,0
	c0,1.3,0,2.5,0,3.7c8.4,0,16.7,0,25,0c0-2.4,0-4.8,0-7.2c-8.4,0-16.6,0-25,0c0,0.3,0,0.5,0,0.9c6.8,0,13.5,0,20.3,0
	C21.2,22.8,21.2,23.5,21.2,24.4z M23.3,11.8c0,2.4,0,4.7,0,7c2.1-1.4,4.1-2.7,6.1-4c0.2-0.1,0.3-0.6,0.3-0.9
	c-0.2-2.5-0.5-4.9-0.7-7.4c0-0.5-0.3-0.6-0.7-0.6c-1.4,0-2.8,0-4.1,0c-0.5,0-0.7,0.1-0.8,0.7c-0.2,1.8-0.5,3.5-0.8,5.2
	c0,0.1,0,0.2,0,0.3C22.7,12.1,22.9,12,23.3,11.8z M26.7,28.2c2.3,0,4.6,0,6.8,0c0-2.4,0-4.8,0-7.2c-2.3,0-4.5,0-6.8,0
	C26.7,23.4,26.7,25.8,26.7,28.2z M11.6,20.1c0-2.4,0-4.8,0-7.1c-0.1,0-0.2,0-0.2,0c-3.1,2-6.1,4-9.2,6.1c-0.2,0.2-0.3,0.6-0.5,1
	C5.1,20.1,8.4,20.1,11.6,20.1z M33.5,13.2c-0.1,0-0.2,0-0.2,0c-3.1,2-6.1,4-9.2,6.1c-0.2,0.1-0.3,0.4-0.5,0.7c3.4,0,6.7,0,9.9,0
	C33.5,17.7,33.5,15.5,33.5,13.2z M22.3,20.1c0-2.3,0-4.5,0-6.8c-3.4,2.2-6.6,4.4-9.9,6.5c0,0.1,0.1,0.2,0.1,0.2
	C15.8,20.1,19,20.1,22.3,20.1z M16.6,9.5c-0.4,2.5-0.8,4.9-1.3,7.5c2.1-1.4,4-2.7,6-4c0.1-0.1,0.2-0.2,0.2-0.3
	c0.1-1.1,0.2-2.1,0.3-3.2C19.9,9.5,18.3,9.5,16.6,9.5z M20.4,22.8c-6.5,0-13,0-19.6,0c0,0.3,0,0.5,0,0.8c6.6,0,13,0,19.5,0
	C20.4,23.2,20.4,23,20.4,22.8z M17.6,3.5c-0.2,1-0.3,2-0.5,3c1.5,0,2.8,0,4.3,0c-0.1-1.1-0.2-2-0.3-3C19.9,3.5,18.8,3.5,17.6,3.5z
	 M24.1,0.8C24,1.6,23.9,2.3,23.8,3c1.7,0,3.2,0,4.7,0c-0.1-0.8-0.2-1.5-0.2-2.2C26.9,0.8,25.6,0.8,24.1,0.8z M28.7,5.1
	c0.1-0.1,0.1-0.1,0.2-0.2c-0.3-0.3-0.5-0.9-0.8-0.9c-1.5-0.1-2.9,0-4.5,0c-0.1,0.4-0.1,0.8-0.2,1.2C25.3,5.1,27,5.1,28.7,5.1z
	 M16.9,7.4c-0.1,0.4-0.1,0.8-0.2,1.2c1.6,0,3.2,0,4.8,0c0.1-1.2,0.1-1.2-1-1.2C19.3,7.4,18.2,7.4,16.9,7.4z"/>
<path class="st0" d="M9.1,32.5c2.2,0,4.3,0,6.5,0c0,2.2,0,4.3,0,6.5c-2.2,0-4.3,0-6.5,0C9.1,36.8,9.1,34.6,9.1,32.5z M9.9,35.2
	c0.7,0,1.4,0,2,0c0-0.7,0-1.3,0-1.9c-0.7,0-1.3,0-2,0C9.9,33.9,9.9,34.5,9.9,35.2z M12.8,33.2c0,0.7,0,1.4,0,2c0.7,0,1.3,0,1.9,0
	c0-0.7,0-1.3,0-2C14.1,33.2,13.5,33.2,12.8,33.2z M11.9,38.1c0-0.7,0-1.3,0-1.9c-0.7,0-1.3,0-2,0c0,0.7,0,1.3,0,1.9
	C10.6,38.1,11.2,38.1,11.9,38.1z M14.7,38.1c0-0.7,0-1.3,0-1.9c-0.7,0-1.3,0-2,0c0,0.7,0,1.3,0,1.9C13.4,38.1,14.1,38.1,14.7,38.1z"
	/>
<path class="st0" d="M31.1,38.9c-2.1,0-4.2,0-6.4,0c0-2.1,0-4.3,0-6.5c2.1,0,4.2,0,6.4,0C31.1,34.6,31.1,36.7,31.1,38.9z M27.4,35.2
	c0-0.7,0-1.3,0-2c-0.7,0-1.3,0-2,0c0,0.7,0,1.3,0,2C26.1,35.2,26.7,35.2,27.4,35.2z M30.3,33.2c-0.7,0-1.3,0-2,0c0,0.7,0,1.3,0,2
	c0.7,0,1.3,0,2,0C30.3,34.5,30.3,33.9,30.3,33.2z M27.4,38.1c0-0.7,0-1.3,0-2c-0.7,0-1.3,0-2,0c0,0.7,0,1.3,0,2
	C26.2,38.1,26.8,38.1,27.4,38.1z M28.4,38.1c0.7,0,1.3,0,1.9,0c0-0.7,0-1.3,0-1.9c-0.7,0-1.3,0-1.9,0C28.4,36.8,28.4,37.4,28.4,38.1
	z"/>
<path class="st0" d="M16.9,38.9c0-2.2,0-4.3,0-6.5c2.2,0,4.3,0,6.5,0c0,2.2,0,4.3,0,6.5C21.2,38.9,19.1,38.9,16.9,38.9z M19.6,35.2
	c0-0.7,0-1.4,0-2c-0.7,0-1.3,0-1.9,0c0,0.7,0,1.3,0,2C18.4,35.2,19,35.2,19.6,35.2z M22.5,33.3c-0.7,0-1.3,0-2,0c0,0.7,0,1.3,0,2
	c0.7,0,1.3,0,2,0C22.5,34.5,22.5,33.9,22.5,33.3z M17.7,36.1c0,0.7,0,1.3,0,2c0.7,0,1.3,0,2,0c0-0.7,0-1.3,0-2
	C19,36.1,18.4,36.1,17.7,36.1z M20.6,36.1c0,0.7,0,1.3,0,1.9c0.7,0,1.3,0,1.9,0c0-0.7,0-1.3,0-1.9C21.8,36.1,21.2,36.1,20.6,36.1z"
	/>
<path class="st0" d="M6.8,33.2c-1.4,0-2.7,0-4.2,0c0,2.9,0,5.8,0,8.7C2.5,42,2.5,42,2.4,42.1c-0.2-0.2-0.6-0.3-0.6-0.5
	c0-3,0-6,0-9.1c2,0,3.8,0,5.7,0c0,3.1,0,6.3,0,9.5C7,42.2,6.8,42,6.8,41.4c0-2.4,0-4.7,0-7.1C6.8,34,6.8,33.7,6.8,33.2z"/>
<path class="st0" d="M4.1,38.7c-1.3-0.5-0.6-1.4-0.7-2.1c-0.1-0.4-0.2-1.1,0.7-0.9C4.1,36.6,4.1,37.6,4.1,38.7z"/>
</svg>
